svg/email_lock_outline.svg

<svg xmlns="http://www.w3.org/2000/svg" viewBox="0 0 24 24"><path d="M12 18.2V18H4V8l8 5 8-5v3.44c.81.36 1.5.92 2 1.62V6c0-1.1-.9-2-2-2H4c-1.1 0-2 .9-2 2v12c0 1.1.9 2 2 2h8zM20 6l-8 5-8-5zm.8 11v-1.5c0-1.4-1.4-2.5-2.8-2.5s-2.8 1.1-2.8 2.5V17c-.6 0-1.2.6-1.2 1.2v3.5c0 .7.6 1.3 1.2 1.3h5.5c.7 0 1.3-.6 1.3-1.2v-3.5c0-.7-.6-1.3-1.2-1.3m-1.3 0h-3v-1.5c0-.8.7-1.3 1.5-1.3s1.5.5 1.5 1.3z"/></svg>

<svg xmlns="http://www.w3.org/2000/svg" id="mdi-email-lock-outline" viewBox="0 0 24 24"><path d="M12 18.2C12 18.13 12 18.07 12 18H4V8L12 13L20 8V11.44C20.81 11.8 21.5 12.36 22 13.06V6C22 4.9 21.1 4 20 4H4C2.9 4 2 4.9 2 6V18C2 19.1 2.9 20 4 20H12V18.2M20 6L12 11L4 6H20M20.8 17V15.5C20.8 14.1 19.4 13 18 13S15.2 14.1 15.2 15.5V17C14.6 17 14 17.6 14 18.2V21.7C14 22.4 14.6 23 15.2 23H20.7C21.4 23 22 22.4 22 21.8V18.3C22 17.6 21.4 17 20.8 17M19.5 17H16.5V15.5C16.5 14.7 17.2 14.2 18 14.2S19.5 14.7 19.5 15.5V17Z" /></svg>
